src/icons/blink.svg

<svg viewBox="0 0 256 256" xml:space="preserve" xmlns="http://www.w3.org/2000/svg"><path class="st0" d="M130.974 23.383c57.809 1.624 103.262 49.782 101.638 107.591s-49.782 103.262-107.59 101.639C67.303 230.989 21.85 183.01 23.383 125.293c1.533-57.81 49.602-103.443 107.41-101.91h.181zm-.541 10.823c-51.766-1.353-94.875 39.59-96.137 91.447-1.353 51.766 39.59 94.875 91.357 96.137 51.766 1.353 94.875-39.59 96.137-91.357 1.443-51.856-39.5-94.875-91.357-96.227.09 0 0 0 0 0z" fill="#f9a825"/><path class="st0" d="M137.9 93.403c-4.149 3.968-2.525 12.806 3.878 19.57s15.241 8.838 19.209 4.78c3.968-4.058 2.706-12.987-3.788-19.751-6.493-6.764-15.422-8.748-19.57-4.78zm52.217-25.162c8.207 8.568 14.43 18.758 18.398 29.851 0 0 2.706 7.395-5.862 7.395H181.73s-6.674-.54-6.944 5.14c-.451 7.035-.27 12.988-.27 12.988.27 4.058 1.803 8.026 4.328 11.183l21.554 22.727a9.184 9.184 0 0 1 1.082 12.355c-10.912 18.578-28.408 32.286-49.06 38.509-6.314 1.894-6.945-3.247-6.765-6.764 0-2.255 2.616-52.397 2.616-52.397.721-5.411-.992-10.912-4.78-14.881-6.764-7.215-11.003-11.814-11.003-11.814s-4.78-4.78-11.634-11.904c-3.788-3.878-9.018-5.862-14.43-5.501H54.027c-3.427 0-8.658-.812-6.403-7.035 7.305-20.292 21.915-37.066 41.124-46.896 3.878-2.705 9.199-1.984 12.265 1.714l21.554 22.727c3.066 2.705 6.944 4.329 11.003 4.78 0 0 5.862.45 12.987.36 5.591 0 5.501-6.764 5.501-6.764s.902-13.888 1.173-20.923c-.27-2.976 1.894-5.591 4.78-5.862.991-.09 1.893.09 2.795.451 11.003 4.69 21.013 11.634 29.22 20.292z" fill="#f9a825"/></svg>

<svg viewBox="0 0 256 256" xmlns="http://www.w3.org/2000/svg">
  <path
    d="M130.974 23.383C188.783 25.007 234.236 73.165 232.612 130.974C230.988 188.783 182.83 234.236 125.022 232.613C67.303 230.989 21.85 183.01 23.383 125.293C24.916 67.483 72.985 21.85 130.793 23.383H130.974ZM130.433 34.206C78.667 32.853 35.558 73.796 34.296 125.653C32.943 177.419 73.886 220.528 125.653 221.79C177.419 223.143 220.528 182.2 221.79 130.433C223.233 78.577 182.29 35.558 130.433 34.206Z"
    fill="#F9A825"
  />
  <path
    d="M137.9 93.403C133.751 97.371 135.375 106.209 141.778 112.973C148.181 119.737 157.019 121.811 160.987 117.753C164.955 113.695 163.693 104.766 157.199 98.002C150.706 91.238 141.777 89.254 137.629 93.222L137.9 93.403ZM190.117 68.241C198.324 76.809 204.547 86.999 208.515 98.092C208.515 98.092 211.221 105.487 202.653 105.487H181.73C181.73 105.487 175.056 104.947 174.786 110.627C174.335 117.662 174.516 123.615 174.516 123.615C174.786 127.673 176.319 131.641 178.844 134.798L200.398 157.525C202.09 159.077 203.139 161.205 203.339 163.492C203.54 165.779 202.876 168.058 201.48 169.88C190.568 188.458 173.072 202.166 152.42 208.389C146.106 210.283 145.475 205.142 145.655 201.625C145.655 199.37 148.271 149.228 148.271 149.228C148.992 143.817 147.279 138.316 143.491 134.347C136.727 127.132 132.488 122.533 132.488 122.533C132.488 122.533 127.708 117.753 120.854 110.629C117.066 106.751 111.836 104.767 106.424 105.128H54.027C50.6 105.128 45.369 104.316 47.624 98.093C54.929 77.801 69.539 61.027 88.748 51.197C92.626 48.492 97.947 49.213 101.013 52.911L122.567 75.638C125.633 78.343 129.511 79.967 133.57 80.418C133.57 80.418 139.432 80.868 146.557 80.778C152.148 80.778 152.058 74.014 152.058 74.014C152.058 74.014 152.96 60.126 153.231 53.091C152.961 50.115 155.125 47.5 158.011 47.229C159.002 47.139 159.904 47.319 160.806 47.68C171.809 52.37 181.819 59.314 190.026 67.972L190.117 68.241Z"
    fill="#F9A825"
  />
</svg>
